flaticon/security/firewall.svg

<svg xmlns="http://www.w3.org/2000/svg" width="32" height="32" viewBox="0 0 24 24">
    <path d="M 22.820312 1.199219 L 1.179688 1.199219 C 0.527344 1.199219 0 1.730469 0 2.378906 L 0 21.621094 C 0 22.269531 0.527344 22.800781 1.179688 22.800781 L 22.820312 22.800781 C 23.472656 22.800781 24 22.269531 24 21.621094 L 24 2.378906 C 24 1.730469 23.472656 1.199219 22.820312 1.199219 Z M 12.398438 2 L 19.199219 2 L 19.199219 6.398438 L 12.398438 6.398438 Z M 19.199219 16.800781 L 12.398438 16.800781 L 12.398438 12.398438 L 19.199219 12.398438 Z M 4.800781 12.398438 L 11.601562 12.398438 L 11.601562 16.800781 L 4.800781 16.800781 Z M 15.199219 11.601562 L 8.398438 11.601562 L 8.398438 7.199219 L 15.199219 7.199219 Z M 4.800781 2 L 11.601562 2 L 11.601562 6.398438 L 4.800781 6.398438 Z M 0.800781 2.378906 C 0.800781 2.171875 0.96875 2 1.179688 2 L 4 2 L 4 6.398438 L 0.800781 6.398438 Z M 0.800781 7.199219 L 7.601562 7.199219 L 7.601562 11.601562 L 0.800781 11.601562 Z M 0.800781 12.398438 L 4 12.398438 L 4 16.800781 L 0.800781 16.800781 Z M 7.601562 22 L 1.179688 22 C 0.96875 22 0.800781 21.828125 0.800781 21.621094 L 0.800781 17.601562 L 7.601562 17.601562 Z M 15.199219 22 L 8.398438 22 L 8.398438 17.601562 L 15.199219 17.601562 Z M 23.199219 21.621094 C 23.199219 21.828125 23.03125 22 22.820312 22 L 16 22 L 16 17.601562 L 23.199219 17.601562 Z M 23.199219 16.800781 L 20 16.800781 L 20 12.398438 L 23.199219 12.398438 Z M 23.199219 11.601562 L 16 11.601562 L 16 7.199219 L 23.199219 7.199219 Z M 20 6.398438 L 20 2 L 22.820312 2 C 23.03125 2 23.199219 2.171875 23.199219 2.378906 L 23.199219 6.398438 Z M 20 6.398438"/>
</svg>

<svg xmlns="http://www.w3.org/2000/svg" width="32" height="32" viewBox="0 0 24 24">
    <path d="M22.82 1.2H1.18C.527 1.2 0 1.73 0 2.378V21.62c0 .649.527 1.18 1.18 1.18h21.64c.653 0 1.18-.531 1.18-1.18V2.38c0-.649-.527-1.18-1.18-1.18zM12.398 2H19.2v4.398h-6.8zM19.2 16.8h-6.8v-4.402h6.8zM4.801 12.399h6.8v4.403h-6.8zm10.398-.796H8.4V7.199h6.8zM4.801 2h6.8v4.398h-6.8zm-4 .379A.38.38 0 0 1 1.18 2H4v4.398H.8zm0 4.82h6.8v4.403h-6.8zm0 5.2H4V16.8H.8zM7.6 22H1.18a.38.38 0 0 1-.38-.379v-4.02h6.802zm7.598 0H8.4v-4.398h6.8zm8-.379a.38.38 0 0 1-.379.379H16v-4.398h7.2zm0-4.82H20v-4.403h3.2zm0-5.2H16V7.2h7.2zM20 6.399V2h2.82a.38.38 0 0 1 .38.379v4.02zm0 0"/>
</svg>
